X:1
T:We Are Going Home
T:We Are Going Home
T:James McGranahan
T:Daniel Webster Whittle, 1881
T:Public Domain Courtesy of the Cyber Hymnal™
C:James McGranahan
Z:Public Domain
Z:Courtesy of the Cyber Hymnal™
%%score ( 1 2 ) ( 3 4 )
L:1/8
Q:1/4=113
M:4/4
K:Bb
V:1 treble 
V:2 treble 
V:3 bass 
V:4 bass 
V:1
 [DF]2 | [DF]2 [DF]2 [EG]2 [DF]2 | [DF]2 [DB]4 [FB]2 | [GB]3 [Gc] [GB]2 [EG]2 | [DF]6 [DF]2 | %5
w: 1.~Our|way is oft- en|rug- ged While|here on earth we|roam, And|
w: 2.~To|Mar- ah’s bit- ter|wa- ters We|oft have mur- m’ring|come, But|
w: 3.~When|of the des- ert|wea- ry, Our|God His grace has|shown, By|
w: 4.~With|hun- ger oft- en|faint- ing, We’ve|made com- plain- ing|moan; But,|
w: 5.~Some|stand to- day on|Ne- bo, The|jour- ney near- ly|done, And|
 [DF]2 [DF]2 [EG]2 [DF]2 | [DF]2 [FB]4 [Fc]2 | [Fd]3 [Ge] [Fd]2 [Fc]2 | [FB]6 ||"^Refrain" d2 | %10
w: thorns are on the|path- way, But|we are go- ing|home.||
w: God the cup has|sweet- ened, And|so we’re go- ing|home.||
w: rest- ing us at|E- lim, With|sweet fore- tastes of|home.|We’re|
w: fed by heaven- ly|man- na, We|still are go- ing|home.||
w: some are in the|val- ley; But|all are go- ing|home.||
 e4 G4 | [DF]2 [FB]4 [Fc]2 | [Fd]3 [Fd] [Fd]2 [FB]2 | [Fc]6 [_Ad]2 | [Ge]2 [Ge]2 [EG]2 [EG]2 | %15
w: |||||
w: |||||
w: go- ing,|go- ing, Yes,|we are go- ing|home; We|soon shall cross the|
w: |||||
w: |||||
 [DF]2 [FB]4 [Fd]2 | [Ec]3 [Ec] [DB]2 [CA]2 | [DB]6 |] %18
w: |||
w: |||
w: riv- er, And|be with Christ at|home.|
w: |||
w: |||
V:2
 x2 | x8 | x8 | x8 | x8 | x8 | x8 | x8 | x6 || x2 | (G2 G2) (E2 E2) | x8 | x8 | x8 | x8 | x8 | x8 | %17
 x6 |] %18
V:3
 [B,,B,]2 | [B,,B,]2 [B,,B,]2 [B,,B,]2 [B,,B,]2 | [B,,B,]2 [B,,F,]4 [D,B,]2 | %3
 [E,E]3 [E,E] [E,E]2 [E,B,]2 | [B,,B,]6 [B,,B,]2 | [B,,B,]2 [B,,B,]2 [B,,B,]2 [B,,B,]2 | %6
 [B,,B,]2 [B,,D]4 [F,C]2 | B,3 [E,B,] [F,B,]2 [F,E]2 | [B,,D]6 || z2 | %10
 ([E,B,]2 [E,B,]2) ([E,B,]2 [E,B,]2) | [B,,B,]2 [B,,D]4 [F,C]2 | B,3 B, B,2 [D,B,]2 | %13
 [F,A,]2 [F,A,]2 [F,A,]2 B,2 | [E,B,]2 [E,B,]2 [E,B,]2 [E,B,]2 | [B,,B,]2 [B,,D]4 [B,,B,]2 | %16
 [F,A,]3 [F,A,] [F,B,]2 F,2 | [B,,F,]6 |] %18
V:4
 x2 | x8 | x8 | x8 | x8 | x8 | x8 | B,3 x5 | x6 || x2 | x8 | x8 | B,3 B, B,2 x2 | x6 B,2 | x8 | %15
 x8 | x6 F,2 | x6 |] %18

